X: 521
U:~=!turn!
M:C
L:1/8
K:B Aeolian
c | d2 d>f d/d/d f>d | {/d}c>BAe c>Ae>c | {/^c}d2 d>f d/d/d f>d | {/d}c>Bc^A B2 Bc |
d2 d>f d/d/d fd | {/d}c>BAe cAec | dfdf cAec | d>Bc>^A B2 B, :|


